X:3
T:Black velvet band
C:Trad.
O:Ireland
D:a.o. The Dubliners, `Original Dubliners'
Z:Bert Van Vreckem <http://flanders.blackmill.net/music/>
M:3/4
L:1/4
K:E
B/B/|"E"B2 B/B/|GAB|A(G(G)|G2)F/F/|EFG|"A"EDC|"B7"(B,3|B,2)B/A/|
